X:7652
T:Tri maligorn - An dro
O:england
C:Loffet 1
M:4/4
L:1/4
K:G
B B/A/ G>A|BcAA|B B/A/ G>A|BcA2:|\
|:G G/B/ d>e|cd B2|G G/B/ d B/B/|AF G2:|


